X:1
T:Dr. Madan
T:Christmas
%%score 1 2 3
L:1/8
M:2/2
K:G
V:1 treble nm="Boy Soprano" snm="B. S."
V:2 treble-8 nm="Tenor" snm="T."
V:3 bass nm="Bass" snm="B."
V:1
 z4 z2 d2 | d4 d4 | d6 e2 | d4 c4 | B6 d2 | G4 A4 | (B2 A2) (c2 B2) | A6 d2 | d4 g4 | %9
 (e2 d2) (c2 B2) | A6 D2 | G4 A4 | B6 A2 | B2 d2 c4 | d6 d2 | d4 B2 d2 | (d2 c2) B2 A2 | B6 d2 | %18
 d4 B2 d2 | (d2 c2) B2 A2 | G8 |] %21
V:2
 z4 z2 B2 | G4 A4 | B6 c2 | B4 A4 | G6 B2 | d4 [Ff]4 | [Gg]4 ([Aa]2 [Gg]2) | [Ff]6 f2 | g4 d4 | %9
 (c2 B2) (A2 G2) | F6 d2 | d4 f4 | g6 f2 | g2 f2 e4 | d6 B2 | B4 G2 B2 | (B2 A2) G2 F2 | G6 B2 | %18
 B4 G2 B2 | B2 A2 G2 F2 | G8 |] %21
V:3
 z4 z2 G,,2 | B,,4 D,4 | G,6 C2 | D4 D,4 | G,6 G,2 | B,4 D4 | G,4 C,4 | D,6 D2 | B,4 B,4 | C4 C4 | %10
 D6 D,2 | B,,4 D,4 | G,6 D,2 | G,2 G,2 A,4 | D,6 G,2 | G,4 G,,2 G,2 | C,4 D,2 D,2 | G,6 G,2 | %18
 G,4 G,,2 G,2 | C,4 D,2 D,2 | [G,,G,]8 |] %21

